X:227
T: Verfhrung (9), S. 49f
N: T0116
O: Luxemburg
S: Singendes Volk, Esch-Alzette 1937 posth.]
N: STRASSEN; geschriebenes Lied aus den 50er Jahren des vorigen Jahr
N: derts von hhh Nikolaus Lersch. Die Geschichte des Liedes ist untersucht
N: in J.Meiers Volksliedstudien.(Straáburg 1917) S.107-167.
R: "erzhlende Lieder"]
M: 3/4
L: 1/16
K: G
D2 | G3GG6A2 | B3BB6
B2 | A2B2c6F2 | A4G4z2
d2 | d2B2e6d2 | d2c2c4z2
c2 | c2A2d6c2 | c4B4z2

